X:48
T:Motet
C:Anonyme
O:XIIIe
M:6/8
L:1/8
Q:"Mouvement de danse"
K:C
%%staves [1 2]
%%continueall 1
V:1
f3e3 | d2c (d/c/d)B | B3A3 | A3c3 | d2c (d/c/d)B | A3A3 |
f3e3 | f2e (d/e/f/e/c) | d2d (d/c/d/e/d) | fed (c/d/c)d | e2f edc | (B/A/B)G A2B | c3-c2z |
(de)c (d/B/c)d | (e/d/e/f/e) c2c | (d/c/d)B (A/G/A/B/A/B/) | c6 | c2c (d/c/d/e/f) | edc (B/A/B/c/A/B/) | c3z2z | (c/d/)cd (f/e/f/g/f/e/) |
d2c (B/A/G)A | (A/G/A/"(b)"B/A) A2G | F3z2z | G2A c2c | d2c "(b)"BAG | (A/G/A)c d2e  | fgf (f/g/f/d/e/f/) | d6 |]
V:2
F6 | G3z2z | A3G3 | A3z2z | G6 | A3z2z |
F3A3 | _B3z2z | G6 | F3z2z | E3G3 | A3z2z | F6 |
G3z2z | E3F3 | D3z2z | C6 | F3z2z | F3D3 | C6 | F6 |
G3z2z | F3A3 | _B3z2z | A6 | G3z2z | A3G3 | F3z2z | G6 |]





%%header "$P0	 $IR 	$P1"
%%footer $D - Éditions Galouvielle - 2009 - À usage librement privé dans le cadre familial

